X: 37056
T: Silver Slipper, The
R: slip jig
M: 9/8
K: Dmajor
|:F2D D3 F2D|D3 F2A d2A|F2D D3 D3|F2A B2G E2G:|
|:F2A d2c d3|F2A d2A Bcd|F2A d2c d3|B2G E2F GFE:|

